!!!OTL: Jolly Fisherman
!!!ONM: 125.
**kern
*clefG2
*k[f#c#]
*D:
*M2/4
*MM84
{8d
=1
8f#
8f#
8e
8d
=2
8e
8d
8B}
{8A
=3
8d
8d
8e
8f#
=4
4g
8r}
{8f#
=5
4f#
8f#
8f#
=6
8e
8d
8f#
8g}
=7
{4.a
8a
=8
8b
8a
8f#
8a
=9
4d}
{8.e
16e
=10
8.f#
16f#
8.e
16d
=11
8.e
16d}
{8.A
16A
=12
8d
8d
8e
8f#
=13
4.g}
{8f#
=14
4f#
8d
8d
=15
8e
8e
8f#
8g}
=16
{4.a
8a
=17
16b
16b
8a
8f#
8a
=18
4.d}
==
*-
!!!CNT: Folksongs of Maritime Canada
!!!MRD: 1928///-1932///
!!!OCL: Helen Creighton
!!!YOR: Songs and Ballads from Nova Scotia
!!!PPR: J.M. Dent & Sons, Limited
!!!PPP: Toronto, Canada
!!!PDT: 1932///
!!!reprint: Dover Publications, 1992: ISBN 0-486-21703-5
!!!ENC1: Craig Stuart Sapp (music and bibliographic data)                       
!!!ENC2: Marcus Pearce (phrase markings and key designations)                   
!!!ENC3: Darrell Conklin (phrase markings and key designations)   
!!!END: 2002/04/10/
!!!EEV: 2004/06/05
!!!MPN: Mr. Richard Hartlan
!!!PPG: 269
!!!EFL: 127/152
!!!ARE: Canada; Nova Scotia
!!!verses: 7
!!!VTS: 1139536441
